!!!OTL: Genovefa Ein jedes betracht', was gewisshaft ist,
!!!ARE: Europa, Mitteleuropa, Oesterreich, Burgenland, Illmitz
!!!YOR: 5, S. 168
!!    1937 aufgezeichnet
!!!SCT: Q0104A
!!!YEM: Copyright 1995, estate of Helmut Schaffrath.
**kern
*ICvox
*Ivox
!! Irregular meter.
*MX
*k[b-]
*F:
{8c
=1
8f
8f
8f
4a
8a
=2
4cc
8cc
4a}
{8g
=3
4f
8f
4cc
8cc
=4
8dd
8cc
8bn
4cc}
{8a
=5
4cc
8dd
8cc
8cc
8b-
=6
8a
8a
4.g}
{8g
=7
8a
8a
8b-
8cc
8b-
8r
=8
8a
8g
4.f}
==
!!!AGN: Ballade, Ehe, Treue, Verleumdung, Rettung
!!!ONB: ESAC (Essen Associative Code) Database: BALLADE
!!!AMT: irregular
!!!AIN: vox
!!!EED: Helmut Schaffrath
!!!EEV: 1.0
*-
